icons/1_Primary/Digitec Galaxus.svg

<svg width="1024" height="1024" viewBox="0 0 1024 1024" fill="none" xmlns="http://www.w3.org/2000/svg">
<g clip-path="url(#clip0_2_2004)">
<path d="M512 1024C794.77 1024 1024 794.77 1024 512C1024 229.23 794.77 0 512 0C229.23 0 0 229.23 0 512C0 794.77 229.23 1024 512 1024Z" fill="#979797"/>
<path d="M179.5 419.11H239.08L179.5 481.06V419.11ZM346.36 419.11L322.15 494.35C317.716 486.956 311.305 480.947 303.64 477C296.04 473.2 286.55 471.3 276.34 471.3C272.688 471.276 269.038 471.514 265.42 472.01C260.543 472.724 255.764 473.999 251.18 475.81C236.18 481.98 222.18 494.09 212.97 510.7C203.71 527.55 200.63 545.83 203.48 561.7C206.33 577.57 214.87 591.37 228.4 598.7C241.93 606.3 258.07 606.3 273.02 600.12C281.528 596.546 289.319 591.465 296.02 585.12V585.36L290.56 601.5H340.17C342.07 593.43 344.68 584.17 347.77 573.73C347.94 572.922 348.177 572.129 348.48 571.36L398.1 418.63H346.36V419.1V419.11ZM305.53 547.52C297.7 567.93 279.9 580.04 266.13 574.82C252.36 569.36 247.62 548.71 255.45 528.3C263.28 507.89 281.08 495.78 294.85 501C308.86 506.45 313.6 527.34 305.53 547.52ZM814.53 557.19C810.505 566.683 804.739 575.339 797.53 582.71C798.792 585.822 799.561 589.111 799.81 592.46C801.46 608.62 837.17 606.38 838.81 603.14C840.45 599.9 836.3 568.14 814.44 557.19M743.29 606.19C738.693 606.173 734.107 605.735 729.59 604.88C729.493 612.001 731.933 618.924 736.473 624.411C741.013 629.898 747.357 633.591 754.37 634.83C760.435 635.684 766.616 634.636 772.06 631.83H770.27C757.27 629.66 752.94 618.38 754.27 605.23C750.561 605.772 746.818 606.042 743.07 606.04M647.23 602.41C648.97 605.66 683.92 608.64 685.57 592.48C685.848 589.134 686.623 585.848 687.87 582.73C680.622 575.368 674.818 566.711 670.76 557.21C648.96 568.04 645.44 599.34 647.22 602.41M671.52 488.72C675.919 478.932 682.19 470.1 689.98 462.72C673.21 448.93 644.98 447.8 642.32 449.54C639.66 451.28 639.5 486.27 656.49 485.89C661.632 485.708 666.752 486.654 671.49 488.66M766.08 428.52C766.08 424.52 770.01 418.03 770.01 414.87C770.01 411.71 759.54 406.2 755.01 401.87C750.48 397.54 746.25 389.53 742.89 389.53H742.53C739.1 389.53 734.75 397.59 730.19 402.05C725.63 406.51 715.19 411.89 715.19 415.05C715.19 418.21 719.19 424.75 719.19 428.7C718.718 432.397 717.833 436.03 716.55 439.53C716.16 441.34 717.43 441.9 718.8 445.33H719.55C734.571 440.479 750.739 440.479 765.76 445.33H766.55C767.92 441.9 769.24 441.33 768.85 439.48C767.538 435.928 766.635 432.237 766.16 428.48M803.26 494C799.503 485.331 794.038 477.509 787.19 471C776.552 460.627 762.644 454.266 747.84 453C745.95 453 744.25 452.73 742.69 452.73C740.969 452.693 739.248 452.783 737.54 453C722.748 454.238 708.843 460.564 698.19 470.9C691.287 477.4 685.761 485.222 681.94 493.9C677.93 503.139 675.821 513.091 675.74 523.162C675.66 533.234 677.608 543.218 681.47 552.52C684.726 560.448 689.384 567.724 695.22 574C704.625 584.201 717.035 591.14 730.65 593.81C734.606 594.561 738.624 594.939 742.65 594.94H747.46C763.749 593.595 778.936 586.17 790 574.14C795.818 567.905 800.466 560.673 803.72 552.79C807.627 543.467 809.604 533.449 809.53 523.341C809.456 513.233 807.333 503.245 803.29 493.98M843 449.53C840.36 447.79 812 448.92 795.34 462.75C803.131 470.129 809.403 478.962 813.8 488.75C818.538 486.743 823.657 485.795 828.8 485.97C845.8 486.36 846.13 451.7 842.97 449.62M524.54 327H518.79V697H524.54V327Z" fill="white"/>
</g>
<defs>
<clipPath id="clip0_2_2004">
<rect width="1024" height="1024" fill="white"/>
</clipPath>
</defs>
</svg>

<svg xmlns="http://www.w3.org/2000/svg" viewBox="0 0 1024 1024">
   <circle cx="512" cy="512" r="512" style="fill:#878787"/>
   <path d="M179.5 419.11h59.58l-59.58 61.95Zm166.86 0-24.21 75.24A46.29 46.29 0 0 0 303.64 477c-7.6-3.8-17.09-5.7-27.3-5.7a76.67 76.67 0 0 0-10.92.71 63.94 63.94 0 0 0-14.24 3.8c-15 6.17-29 18.28-38.21 34.89-9.26 16.85-12.34 35.13-9.49 51s11.39 29.67 24.92 37c13.53 7.6 29.67 7.6 44.62 1.42a76.6 76.6 0 0 0 23-15v.24l-5.46 16.14h49.61c1.9-8.07 4.51-17.33 7.6-27.77a14.76 14.76 0 0 1 .71-2.37l49.62-152.73h-51.74v.47Zm-40.83 128.41c-7.83 20.41-25.63 32.52-39.4 27.3-13.77-5.46-18.51-26.11-10.68-46.52s25.63-32.52 39.4-27.3c14.01 5.45 18.75 26.34 10.68 46.52Zm509 9.67a82.63 82.63 0 0 1-17 25.52 32.3 32.3 0 0 1 2.28 9.75c1.65 16.16 37.36 13.92 39 10.68s-2.51-35-24.37-45.95m-71.15 49a75.17 75.17 0 0 1-13.7-1.31 30 30 0 0 0 24.78 29.95 29.61 29.61 0 0 0 17.69-3h-1.79c-13-2.17-17.33-13.45-16-26.6a77.18 77.18 0 0 1-11.2.81m-95.84-3.63c1.74 3.25 36.69 6.23 38.34-9.93a33.78 33.78 0 0 1 2.3-9.75 82.65 82.65 0 0 1-17.11-25.52c-21.8 10.83-25.32 42.13-23.54 45.2m24.3-113.69a82.27 82.27 0 0 1 18.46-26c-16.77-13.79-45-14.92-47.66-13.18s-2.82 36.73 14.17 36.35a35.28 35.28 0 0 1 15 2.77m94.59-60.14c0-4 3.93-10.49 3.93-13.65s-10.47-8.67-15-13-8.76-12.34-12.12-12.34h-.36c-3.43 0-7.78 8.06-12.34 12.52s-15 9.84-15 13 4 9.7 4 13.65a49.77 49.77 0 0 1-2.64 10.83c-.39 1.81.88 2.37 2.25 5.8h.75a75.18 75.18 0 0 1 46.21 0h.79c1.37-3.43 2.69-4 2.3-5.85a49.79 49.79 0 0 1-2.69-11m37.1 65.52a70.29 70.29 0 0 0-16.07-23 64.2 64.2 0 0 0-39.35-18c-1.89 0-3.59-.27-5.15-.27a34.9 34.9 0 0 0-5.15.27 64.2 64.2 0 0 0-39.35 17.9 70.75 70.75 0 0 0-16.25 23 75 75 0 0 0-.47 58.62A71.35 71.35 0 0 0 695.22 574a65.28 65.28 0 0 0 35.43 19.81 64.44 64.44 0 0 0 12 1.13h4.81a65.07 65.07 0 0 0 42.54-20.8 71 71 0 0 0 13.72-21.35 74.77 74.77 0 0 0-.43-58.81M843 449.53c-2.64-1.74-31-.61-47.66 13.22a82.21 82.21 0 0 1 18.46 26 35.37 35.37 0 0 1 15-2.78c17 .39 17.33-34.27 14.17-36.35M524.54 327h-5.75v370h5.75Z" style="fill:#fff"/>
</svg>
